Lila_HD/actions/scalable/category2parent.svg

<?xml version="1.0" encoding="UTF-8" standalone="no"?>
<svg
   xmlns:dc="http://purl.org/dc/elements/1.1/"
   xmlns:cc="http://creativecommons.org/ns#"
   xmlns:rdf="http://www.w3.org/1999/02/22-rdf-syntax-ns#"
   xmlns:svg="http://www.w3.org/2000/svg"
   xmlns="http://www.w3.org/2000/svg"
   xmlns:xlink="http://www.w3.org/1999/xlink"
   xmlns:sodipodi="http://sodipodi.sourceforge.net/DTD/sodipodi-0.dtd"
   xmlns:inkscape="http://www.inkscape.org/namespaces/inkscape"
   viewBox="0 0 96 96"
   version="1.1"
   id="svg8"
   sodipodi:docname="category2parent.svg"
   width="96"
   height="96"
   inkscape:version="0.92.1 r15371">
  <metadata
     id="metadata12">
    <rdf:RDF>
      <cc:Work
         rdf:about="">
        <dc:format>image/svg+xml</dc:format>
        <dc:type
           rdf:resource="http://purl.org/dc/dcmitype/StillImage" />
        <dc:title></dc:title>
      </cc:Work>
    </rdf:RDF>
  </metadata>
  <sodipodi:namedview
     pagecolor="#ffffff"
     bordercolor="#666666"
     borderopacity="1"
     objecttolerance="10"
     gridtolerance="10"
     guidetolerance="10"
     inkscape:pageopacity="0"
     inkscape:pageshadow="2"
     inkscape:window-width="1280"
     inkscape:window-height="980"
     id="namedview10"
     showgrid="false"
     inkscape:pagecheckerboard="true"
     inkscape:zoom="1.8963318"
     inkscape:cx="11"
     inkscape:cy="11"
     inkscape:window-x="0"
     inkscape:window-y="26"
     inkscape:window-maximized="1"
     inkscape:current-layer="g986" />
  <defs
     id="defs3051">
    <style
       type="text/css"
       id="current-color-scheme">
      .ColorScheme-Text {
        color:#4d4d4d;
      }
      .ColorScheme-Highlight {
        color:#3daee9;
      }
      </style>
    <linearGradient
       y2="47.000011"
       x2="90"
       y1="47.000011"
       x1="6"
       gradientTransform="matrix(1.1415064,0,0,1.1415062,7.0693383,-16.1436)"
       gradientUnits="userSpaceOnUse"
       id="linearGradient7426"
       xlink:href="#linearGradient6139-0"
       inkscape:collect="always" />
    <linearGradient
       id="linearGradient6139-0">
      <stop
         id="stop6141-2"
         offset="0"
         style="stop-color:#dde2e5;stop-opacity:1" />
      <stop
         style="stop-color:#f9fbfc;stop-opacity:1"
         offset="0.25"
         id="stop6151-0" />
      <stop
         style="stop-color:#f6f7f8;stop-opacity:1"
         offset="0.5"
         id="stop6147-1" />
      <stop
         id="stop6149-4"
         offset="0.75"
         style="stop-color:#f8fafc;stop-opacity:1" />
      <stop
         id="stop6143-4"
         offset="1"
         style="stop-color:#dde2e5;stop-opacity:1" />
    </linearGradient>
    <radialGradient
       r="42"
       fy="-27"
       fx="48"
       cy="-27"
       cx="48"
       gradientTransform="matrix(-1.1436508,0,0,-0.93335492,212.76191,-20.400582)"
       gradientUnits="userSpaceOnUse"
       id="radialGradient7430"
       xlink:href="#linearGradient4091-0-3-0-7"
       inkscape:collect="always" />
    <linearGradient
       id="linearGradient4091-0-3-0-7">
      <stop
         style="stop-color:#ffffff;stop-opacity:1;"
         offset="0"
         id="stop4093-3-6-4-2" />
      <stop
         id="stop4099-6-1-8-3"
         offset="0.80000001"
         style="stop-color:#ffffff;stop-opacity:1;" />
      <stop
         style="stop-color:#ffffff;stop-opacity:0;"
         offset="1"
         id="stop4095-1-0-7-9" />
    </linearGradient>
    <linearGradient
       y2="88.171875"
       x2="94.5"
       y1="88.171875"
       x1="1.5"
       gradientTransform="matrix(1.0310382,0,0,1.0310382,12.371819,-11.982625)"
       gradientUnits="userSpaceOnUse"
       id="linearGradient7460"
       xlink:href="#linearGradient3832-0-6-1-1"
       inkscape:collect="always" />
    <linearGradient
       id="linearGradient3832-0-6-1-1">
      <stop
         style="stop-color:#000000;stop-opacity:1;"
         offset="0"
         id="stop3834-6-3-7-1" />
      <stop
         id="stop3872-2-4"
         offset="0.1"
         style="stop-color:#000000;stop-opacity:0.58823532;" />
      <stop
         style="stop-color:#000000;stop-opacity:0.58823532;"
         offset="0.89999998"
         id="stop3844-6-2-7-6" />
      <stop
         style="stop-color:#000000;stop-opacity:1;"
         offset="1"
         id="stop3836-5-0-2-9" />
    </linearGradient>
    <radialGradient
       r="43.199203"
       fy="44.892841"
       fx="13.948145"
       cy="44.892841"
       cx="13.948145"
       gradientTransform="matrix(1.0054001,0,0,0.05071751,47.322667,70.672296)"
       gradientUnits="userSpaceOnUse"
       id="radialGradient7462"
       xlink:href="#linearGradient4133"
       inkscape:collect="always" />
    <linearGradient
       inkscape:collect="always"
       id="linearGradient4133">
      <stop
         style="stop-color:#ffffff;stop-opacity:1;"
         offset="0"
         id="stop4135" />
      <stop
         style="stop-color:#ffffff;stop-opacity:0;"
         offset="1"
         id="stop4137" />
    </linearGradient>
    <radialGradient
       r="43.199203"
       fy="44.892841"
       fx="13.948145"
       cy="44.892841"
       cx="13.948145"
       gradientTransform="matrix(0.91589864,0,0,0.05071751,19.705808,-105.89555)"
       gradientUnits="userSpaceOnUse"
       id="radialGradient7464"
       xlink:href="#linearGradient4133"
       inkscape:collect="always" />
    <linearGradient
       inkscape:collect="always"
       xlink:href="#linearGradient4133"
       id="linearGradient7128"
       gradientUnits="userSpaceOnUse"
       x1="2.7713892"
       y1="-28.64156"
       x2="50.527882"
       y2="14.514202" />
    <clipPath
       clipPathUnits="userSpaceOnUse"
       id="clipPath4156-4">
      <path
         style="opacity:0.6;fill:#ffffff;fill-opacity:1;stroke:none"
         d="m 27.046336,-55.695463 -14.21366,13.321486 h 0.06127 l 15.653407,21.770763 10.231384,-10.546177 C 38.561832,-32.30156 27.468089,-54.819245 27.046336,-55.695463 Z M 9.6468554,-39.382809 -5.2407289,-25.32124 15.987863,-7.8059573 26.372412,-18.382966 Z m 31.4906096,12.951445 -9.741259,9.713584 8.944804,12.4580526 7.780753,-7.5550056 z m -49.8397109,4.378822 -13.7541661,12.9822847 26.2830181,13.84571 0.06127,-0.0617 -0.122531,-0.0617 L 13.598503,-5.4007374 -8.7022409,-22.052595 Z m 38.0154159,7.400825 -9.802525,9.7752596 11.579232,9.5594001 7.62759,-7.40083 -8.669108,-11.0087257 z m 20.187073,5.6739697 -7.382526,7.2158 6.187844,8.54179 5.820249,-6.13651996 z m -32.195166,6.32154 -9.5574606,9.49772 13.6622686,7.1849703 7.933918,-7.6783603 z m 23.311629,2.37443004 -7.10683,6.93826996 8.362778,6.9074403 5.360756,-5.6739699 -0.06127,-0.0925 -0.0919,0.12335 -6.463539,-8.20258036 z m -8.730374,8.54178036 -7.505057,7.3391599 10.353916,5.45811 c 1.397496,-1.32103 5.67514,-6.12292 5.850882,-6.32154 z"
         id="path4158-0"
         inkscape:connector-curvature="0" />
    </clipPath>
    <radialGradient
       r="42"
       fy="-27"
       fx="48"
       cy="-27"
       cx="48"
       gradientTransform="matrix(-1.1436508,0,0,-0.93335492,212.76191,-20.400582)"
       gradientUnits="userSpaceOnUse"
       id="radialGradient1031"
       xlink:href="#linearGradient4091-0-3-0-7"
       inkscape:collect="always" />
    <radialGradient
       inkscape:collect="always"
       xlink:href="#linearGradient4091-0-3-0-7"
       id="radialGradient1064"
       gradientUnits="userSpaceOnUse"
       gradientTransform="matrix(-1.1436508,0,0,-0.93335492,212.76191,-20.400582)"
       cx="48"
       cy="-27"
       fx="48"
       fy="-27"
       r="42" />
  </defs>
  <g
     transform="translate(3.9847238e-7,-1026.5197)"
     id="layer1"
     inkscape:label="Livello 1">
    <g
       id="g986"
       transform="matrix(0.96989623,0,0,0.96989623,-11.999382,1038.1416)">
      <path
         style="display:inline;opacity:0.15;fill:#000000;fill-opacity:1;fill-rule:nonzero;stroke:none;stroke-width:1.03103817"
         d="M 104.2815,-11.982625 H 19.441789 c -3.916756,0 -7.069968,3.1532086 -7.069968,7.0699725 V 79.927061 c 0,3.916767 3.153212,7.069975 7.069968,7.069975 H 104.2815 c 3.91677,0 7.06998,-3.153208 7.06998,-7.069975 V -4.9126525 c 0,-3.9167639 -3.15321,-7.0699725 -7.06998,-7.0699725 z"
         id="path3288"
         inkscape:connector-curvature="0" />
      <path
         inkscape:connector-curvature="0"
         id="path4085"
         d="M 103.61869,-11.209347 H 20.104598 c -3.855558,0 -6.9595,3.1039398 -6.9595,6.9595046 V 79.26425 c 0,3.855568 3.103942,6.959508 6.9595,6.959508 h 83.514092 c 3.85557,0 6.95951,-3.10394 6.95951,-6.959508 V -4.2498424 c 0,-3.8555648 -3.10394,-6.9595046 -6.95951,-6.9595046 z"
         style="display:inline;opacity:0.15;fill:#000000;fill-opacity:1;fill-rule:nonzero;stroke:none;stroke-width:1.03103817" />
      <path
         style="display:inline;opacity:1;fill:url(#linearGradient7426);fill-opacity:1;fill-rule:nonzero;stroke:none;stroke-width:1.03103817"
         d="M 102.95588,-10.436068 H 20.767416 c -3.794368,0 -6.849039,3.0546699 -6.849039,6.8490367 V 78.601442 c 0,3.794367 3.054671,6.849038 6.849039,6.849038 h 82.188464 c 3.79437,0 6.84903,-3.054671 6.84903,-6.849038 V -3.5870313 c 0,-3.7943668 -3.05466,-6.8490367 -6.84903,-6.8490367 z"
         id="rect4251-1"
         inkscape:connector-curvature="0" />
      <path
         style="display:inline;opacity:0.96300001;fill:#dfe3e6;fill-opacity:1;fill-rule:nonzero;stroke:none;stroke-width:1.07682776"
         d="m 23.96891,-5.5050965 c -2.99258,0 -5.368255,2.389748 -5.368255,5.40006498 v 22.37651852 7.560091 41.68175 c 1.149525,1.7591 3.110309,2.93628 5.368255,2.93628 h 4.294615 68.713733 4.294592 c 2.25797,0 4.21875,-1.17718 5.36827,-2.93628 V 29.831578 22.271487 -0.10503152 c 0,-3.01031698 -2.37568,-5.40006498 -5.36827,-5.40006498 z"
         id="path1100"
         inkscape:connector-curvature="0"
         sodipodi:nodetypes="sscccsccscccsss" />
      <g
         id="g3272"
         transform="matrix(1.0701623,0,0,1.0701621,-107.08128,-15.572846)">
        <path
           inkscape:connector-curvature="0"
           id="path4236-5"
           d="m 119.46667,4.8 c -3.5456,0 -6.4,2.8543996 -6.4,6.4 v 16 h 1.06666 v -16 c 0,-2.973117 2.36022,-5.3333333 5.33334,-5.3333333 h 76.8 c 2.97312,0 5.33333,2.3602163 5.33333,5.3333333 v 16 h 1.06667 v -16 c 0,-3.5456004 -2.8544,-6.4 -6.4,-6.4 z"
           style="display:inline;opacity:0.45;fill:url(#radialGradient1064);fill-opacity:1;fill-rule:nonzero;stroke:none;stroke-width:1.06666672" />
      </g>
      <path
         inkscape:connector-curvature="0"
         id="path4989"
         d="m 22.501852,-7.1063709 c -3.213356,0 -5.843888,2.6183319 -5.843888,5.8212457 V 70.143131 c 0,3.202915 2.630532,5.821246 5.843888,5.821246 h 79.175258 c 3.21336,0 5.8439,-2.618331 5.8439,-5.821246 V -1.2851252 c 0,-3.2029127 -2.63054,-5.8212457 -5.8439,-5.8212457 z m 0,2.3914303 h 79.175258 c 1.94671,0 3.45606,1.5260344 3.45606,3.4298154 V 70.143131 c 0,1.903785 -1.50935,3.429815 -3.45606,3.429815 H 22.501852 c -1.946702,0 -3.456063,-1.52603 -3.456063,-3.429815 V -1.2851252 c 0,-1.903781 1.509361,-3.4298154 3.456063,-3.4298154 z"
         style="color:#000000;font-style:normal;font-variant:normal;font-weight:normal;font-stretch:normal;font-size:medium;line-height:normal;font-family:Sans;-inkscape-font-specification:Sans;text-indent:0;text-align:start;text-decoration:none;text-decoration-line:none;letter-spacing:normal;word-spacing:normal;text-transform:none;writing-mode:lr-tb;direction:ltr;baseline-shift:baseline;text-anchor:start;display:inline;overflow:visible;visibility:visible;opacity:0.581;fill:#1f2224;fill-opacity:0.63265303;stroke:none;stroke-width:2.44923139;marker:none;enable-background:accumulate" />
      <path
         inkscape:connector-curvature="0"
         style="display:inline;opacity:0.65818182;fill:url(#linearGradient7460);fill-opacity:1;fill-rule:nonzero;stroke:none;stroke-width:1.03103817"
         d="m 13.918376,72.401403 v 6.186229 c 0,3.794366 3.06848,6.862847 6.862848,6.862847 h 82.160856 c 3.79437,0 6.86284,-3.068481 6.86284,-6.862847 v -6.186229 c 0,3.794367 -3.06847,6.862847 -6.86284,6.862847 H 20.781224 c -3.794368,0 -6.862848,-3.06848 -6.862848,-6.862847 z"
         id="path4118" />
      <rect
         style="opacity:0.55;fill:url(#radialGradient7462);fill-opacity:1;stroke:none;stroke-width:1.03103817"
         id="rect4131"
         width="86.864975"
         height="4.3819122"
         x="17.913649"
         y="70.758194"
         rx="0"
         ry="4.3819122" />
      <rect
         ry="4.3819122"
         rx="0"
         y="-105.80965"
         x="-7.0851936"
         height="4.3819122"
         width="79.132179"
         id="rect4141"
         style="opacity:0.55;fill:url(#radialGradient7464);fill-opacity:1;stroke:none;stroke-width:1.03103817"
         transform="rotate(90)" />
      <path
         style="color:#4d4d4d;fill:currentColor;fill-opacity:1;stroke:#0e232e;stroke-width:0.92793432;stroke-miterlimit:4;stroke-dasharray:none"
         d="M 28.490356,2.0738368 V 66.959865 H 64.988748 V 62.904487 H 32.545733 V 18.295344 h 56.775275 v 20.276883 h 4.055374 V 2.0738368 H 85.265633 V 14.239967 H 77.154876 V 2.0738368 H 44.711862 V 14.239967 H 36.60111 V 2.0738368 Z M 69.044123,42.627604 v 4.055377 20.276884 H 93.376382 V 46.682981 42.627604 h -4.055373 v 4.055377 h -4.055375 v -4.055377 h -8.110756 v 4.055377 h -4.055376 v -4.055377 z m 4.055378,8.110754 H 89.321008 V 62.904487 H 73.099501 Z"
         class="ColorScheme-Text"
         id="path4"
         inkscape:connector-curvature="0" />
      <path
         sodipodi:nodetypes="ssccscss"
         style="opacity:0.14322917;fill:#ffffff;fill-opacity:1;stroke:none;stroke-width:1.03103817"
         d="m 22.44766,-5.1329235 c -2.055221,0 -3.716368,1.7005335 -3.720813,3.798858 L 18.574029,70.798522 c 1.973084,2.599303 1.716971,2.485598 5.002096,2.762218 1.860215,-15.322314 37.63188,-75.6126998 79.821195,-75.6126998 0.50323,0 0.99317,0.020476 1.49419,0.02991 -0.31226,-1.7713555 -1.80534,-3.1108751 -3.63292,-3.1108751 z"
         id="rect4190"
         inkscape:connector-curvature="0" />
      <path
         style="color:#3daee9;fill:#b50000;fill-opacity:1;stroke:#b50000;stroke-width:1.03103813;stroke-miterlimit:4;stroke-dasharray:none"
         d="m 48.767239,22.350721 v 4.055375 20.276886 H 73.0995 V 26.406096 22.350721 h -4.055378 v 4.055375 h -4.055377 v -4.055375 h -8.110753 v 4.055375 h -4.055378 v -4.055375 z m 4.055375,8.110753 h 16.221508 v 12.16613 H 52.822614 Z"
         class="ColorScheme-Highlight"
         id="path6"
         inkscape:connector-curvature="0" />
      <rect
         transform="matrix(0.93752781,0,0,0.95719245,17.02736,24.015666)"
         style="opacity:0.66699997;fill:url(#linearGradient7128);fill-opacity:1;stroke:none"
         id="rect4146"
         width="92"
         height="92"
         x="2"
         y="-30"
         rx="3.9569874"
         ry="3.9569881"
         clip-path="url(#clipPath4156-4)" />
      <g
         transform="matrix(1.0701623,0,0,1.0701621,-107.08128,-15.572846)"
         id="g1094">
        <path
           style="display:inline;opacity:0.45;fill:url(#radialGradient7430);fill-opacity:1;fill-rule:nonzero;stroke:none;stroke-width:1.06666672"
           d="m 119.46667,4.8 c -3.5456,0 -6.4,2.8543996 -6.4,6.4 v 16 h 1.06666 v -16 c 0,-2.973117 2.36022,-5.3333333 5.33334,-5.3333333 h 76.8 c 2.97312,0 5.33333,2.3602163 5.33333,5.3333333 v 16 h 1.06667 v -16 c 0,-3.5456004 -2.8544,-6.4 -6.4,-6.4 z"
           id="path1092"
           inkscape:connector-curvature="0" />
      </g>
    </g>
  </g>
</svg>

<?xml version="1.0" encoding="UTF-8"?>
<svg version="1.1" viewBox="0 0 96 96" xmlns="http://www.w3.org/2000/svg" xmlns:cc="http://creativecommons.org/ns#" xmlns:dc="http://purl.org/dc/elements/1.1/" xmlns:rdf="http://www.w3.org/1999/02/22-rdf-syntax-ns#" xmlns:xlink="http://www.w3.org/1999/xlink">
<metadata>
<rdf:RDF>
<cc:Work rdf:about="">
<dc:format>image/svg+xml</dc:format>
<dc:type rdf:resource="http://purl.org/dc/dcmitype/StillImage"/>
<dc:title/>
</cc:Work>
</rdf:RDF>
</metadata>
<defs>
<style type="text/css">.ColorScheme-Text {
        color:#4d4d4d;
      }
      .ColorScheme-Highlight {
        color:#3daee9;
      }</style>
<linearGradient id="linearGradient7426" x1="6" x2="90" y1="47" y2="47" gradientTransform="matrix(1.1415 0 0 1.1415 7.0693 -16.144)" gradientUnits="userSpaceOnUse">
<stop stop-color="#dde2e5" offset="0"/>
<stop stop-color="#f9fbfc" offset=".25"/>
<stop stop-color="#f6f7f8" offset=".5"/>
<stop stop-color="#f8fafc" offset=".75"/>
<stop stop-color="#dde2e5" offset="1"/>
</linearGradient>
<radialGradient id="radialGradient7430" cx="48" cy="-27" r="42" gradientTransform="matrix(-1.1437 0 0 -.93335 212.76 -20.401)" gradientUnits="userSpaceOnUse" xlink:href="#linearGradient4091-0-3-0-7"/>
<linearGradient id="linearGradient4091-0-3-0-7">
<stop stop-color="#fff" offset="0"/>
<stop stop-color="#fff" offset=".8"/>
<stop stop-color="#fff" stop-opacity="0" offset="1"/>
</linearGradient>
<linearGradient id="linearGradient7460" x1="1.5" x2="94.5" y1="88.172" y2="88.172" gradientTransform="matrix(1.031 0 0 1.031 12.372 -11.983)" gradientUnits="userSpaceOnUse">
<stop offset="0"/>
<stop stop-opacity=".58824" offset=".1"/>
<stop stop-opacity=".58824" offset=".9"/>
<stop offset="1"/>
</linearGradient>
<radialGradient id="radialGradient7462" cx="13.948" cy="44.893" r="43.199" gradientTransform="matrix(1.0054 0 0 .050718 47.323 70.672)" gradientUnits="userSpaceOnUse" xlink:href="#linearGradient4133"/>
<linearGradient id="linearGradient4133">
<stop stop-color="#fff" offset="0"/>
<stop stop-color="#fff" stop-opacity="0" offset="1"/>
</linearGradient>
<radialGradient id="radialGradient7464" cx="13.948" cy="44.893" r="43.199" gradientTransform="matrix(.9159 0 0 .050718 19.706 -105.9)" gradientUnits="userSpaceOnUse" xlink:href="#linearGradient4133"/>
<linearGradient id="linearGradient7128" x1="2.7714" x2="50.528" y1="-28.642" y2="14.514" gradientUnits="userSpaceOnUse" xlink:href="#linearGradient4133"/>
<clipPath id="clipPath4156-4">
<path d="m27.046-55.695-14.214 13.321h0.06127l15.653 21.771 10.231-10.546c-0.2169-1.1522-11.311-23.67-11.732-24.546zm-17.399 16.313-14.888 14.062 21.229 17.515 10.385-10.577zm31.491 12.951-9.7413 9.7136 8.9448 12.458 7.7808-7.555zm-49.84 4.3788-13.754 12.982 26.283 13.846 0.06127-0.0617-0.12253-0.0617 9.8332-10.053-22.301-16.652zm38.015 7.4008-9.8025 9.7753 11.579 9.5594 7.6276-7.4008-8.6691-11.009zm20.187 5.674-7.3825 7.2158 6.1878 8.5418 5.8202-6.1365zm-32.195 6.3215-9.5575 9.4977 13.662 7.185 7.9339-7.6784zm23.312 2.3744-7.1068 6.9383 8.3628 6.9074 5.3608-5.674-0.06127-0.0925-0.0919 0.12335-6.4635-8.2026zm-8.7304 8.5418-7.5051 7.3392 10.354 5.4581c1.3975-1.321 5.6751-6.1229 5.8509-6.3215z" fill="#fff" opacity=".6"/>
</clipPath>
</defs>
<g transform="translate(3.9847e-7 -1026.5)">
<g transform="matrix(.9699 0 0 .9699 -11.999 1038.1)">
<path d="m104.28-11.983h-84.84c-3.9168 0-7.07 3.1532-7.07 7.07v84.84c0 3.9168 3.1532 7.07 7.07 7.07h84.84c3.9168 0 7.07-3.1532 7.07-7.07v-84.84c0-3.9168-3.1532-7.07-7.07-7.07z" opacity=".15"/>
<path d="m103.62-11.209h-83.514c-3.8556 0-6.9595 3.1039-6.9595 6.9595v83.514c0 3.8556 3.1039 6.9595 6.9595 6.9595h83.514c3.8556 0 6.9595-3.1039 6.9595-6.9595v-83.514c0-3.8556-3.1039-6.9595-6.9595-6.9595z" opacity=".15"/>
<path d="m102.96-10.436h-82.188c-3.7944 0-6.849 3.0547-6.849 6.849v82.188c0 3.7944 3.0547 6.849 6.849 6.849h82.188c3.7944 0 6.849-3.0547 6.849-6.849v-82.188c0-3.7944-3.0547-6.849-6.849-6.849z" fill="url(#linearGradient7426)"/>
<path d="m23.969-5.5051c-2.9926 0-5.3683 2.3897-5.3683 5.4001v71.618c1.1495 1.7591 3.1103 2.9363 5.3683 2.9363h77.303c2.258 0 4.2188-1.1772 5.3683-2.9363v-71.618c0-3.0103-2.3757-5.4001-5.3683-5.4001z" fill="#dfe3e6" opacity=".963"/>
<g transform="matrix(1.0702 0 0 1.0702 -107.08 -15.573)">
<path d="m119.47 4.8c-3.5456 0-6.4 2.8544-6.4 6.4v16h1.0667v-16c0-2.9731 2.3602-5.3333 5.3333-5.3333h76.8c2.9731 0 5.3333 2.3602 5.3333 5.3333v16h1.0667v-16c0-3.5456-2.8544-6.4-6.4-6.4z" fill="url(#radialGradient7430)" opacity=".45"/>
</g>
<path d="m22.502-7.1064c-3.2134 0-5.8439 2.6183-5.8439 5.8212v71.428c0 3.2029 2.6305 5.8212 5.8439 5.8212h79.175c3.2134 0 5.8439-2.6183 5.8439-5.8212v-71.428c0-3.2029-2.6305-5.8212-5.8439-5.8212zm0 2.3914h79.175c1.9467 0 3.4561 1.526 3.4561 3.4298v71.428c0 1.9038-1.5094 3.4298-3.4561 3.4298h-79.175c-1.9467 0-3.4561-1.526-3.4561-3.4298v-71.428c0-1.9038 1.5094-3.4298 3.4561-3.4298z" color="#000000" fill="#1f2224" fill-opacity=".63265" opacity=".581" style="text-decoration-line:none;text-indent:0;text-transform:none"/>
<path d="m13.918 72.401v6.1862c0 3.7944 3.0685 6.8628 6.8628 6.8628h82.161c3.7944 0 6.8628-3.0685 6.8628-6.8628v-6.1862c0 3.7944-3.0685 6.8628-6.8628 6.8628h-82.161c-3.7944 0-6.8628-3.0685-6.8628-6.8628z" fill="url(#linearGradient7460)" opacity=".65818"/>
<rect x="17.914" y="70.758" width="86.865" height="4.3819" rx="0" ry="4.3819" fill="url(#radialGradient7462)" opacity=".55"/>
<rect transform="rotate(90)" x="-7.0852" y="-105.81" width="79.132" height="4.3819" rx="0" ry="4.3819" fill="url(#radialGradient7464)" opacity=".55"/>
<path class="ColorScheme-Text" d="m28.49 2.0738v64.886h36.498v-4.0554h-32.443v-44.609h56.775v20.277h4.0554v-36.498h-8.1107v12.166h-8.1108v-12.166h-32.443v12.166h-8.1108v-12.166zm40.554 40.554v24.332h24.332v-24.332h-4.0554v4.0554h-4.0554v-4.0554h-8.1108v4.0554h-4.0554v-4.0554zm4.0554 8.1108h16.222v12.166h-16.222z" color="#4d4d4d" fill="currentColor" stroke="#0e232e" stroke-width=".92793"/>
<path d="m22.448-5.1329c-2.0552 0-3.7164 1.7005-3.7208 3.7989l-0.15282 72.133c1.9731 2.5993 1.717 2.4856 5.0021 2.7622 1.8602-15.322 37.632-75.613 79.821-75.613 0.50323 0 0.99317 0.020476 1.4942 0.02991-0.31226-1.7714-1.8053-3.1109-3.6329-3.1109z" fill="#fff" opacity=".14323"/>
<path class="ColorScheme-Highlight" d="m48.767 22.351v24.332h24.332v-24.332h-4.0554v4.0554h-4.0554v-4.0554h-8.1108v4.0554h-4.0554v-4.0554zm4.0554 8.1108h16.222v12.166h-16.222z" color="#3daee9" fill="#b50000" stroke="#b50000" stroke-width="1.031"/>
<rect transform="matrix(.93753 0 0 .95719 17.027 24.016)" x="2" y="-30" width="92" height="92" rx="3.957" ry="3.957" clip-path="url(#clipPath4156-4)" fill="url(#linearGradient7128)" opacity=".667"/>
<g transform="matrix(1.0702 0 0 1.0702 -107.08 -15.573)">
<path d="m119.47 4.8c-3.5456 0-6.4 2.8544-6.4 6.4v16h1.0667v-16c0-2.9731 2.3602-5.3333 5.3333-5.3333h76.8c2.9731 0 5.3333 2.3602 5.3333 5.3333v16h1.0667v-16c0-3.5456-2.8544-6.4-6.4-6.4z" fill="url(#radialGradient7430)" opacity=".45"/>
</g>
</g>
</g>
</svg>
